X: 0241
T: Shoulder To Shoulder - 8x40J
P: Garderhouse Voe
C: Tom Anderson
B: Miss Milligan's Miscellany v.2 #41
Z: 2019 John Chambers <jc:trillian.mit.edu>
M: 6/8
L: 1/8
K: D
A |:\
"D"dcd "A/D"fed | "G"BGB d2B | "D"AFA d2e | "E7"fed "A"e2c |\
"D"dcd fed | "G"BGB d2B | "D"AFA "A7"f2e |1 "D"d3- d2A :|2 "D"d3- d2a ||
||\
"D"d'c'd' afd | "G"B2d g2b | "D"A2d f2a | "E7"fed "A"e2a |\
"D"d'c'd' afd | "G"BGB g2b | "D"afA "A7"f2e | "D"d3- d2a ||
|:\
"D"d'c'd' afd | "G"BGB gab | "D"AFA dfa | "D"fed "A7"e2A |\
"D"dcd fed | "G"BGB g2b | "D"afA "A7"f2e |1 "D"d3- d2a :|2 "D"d3 d2 |]
